icons/themes/default/settings.svg

<svg viewBox="0 0 16 16" fill="none" xmlns="http://www.w3.org/2000/svg">
<path fill-rule="evenodd" clip-rule="evenodd" d="M6.24223 6.24223C6.71107 5.77339 7.34695 5.50999 8.00999 5.50999C8.67304 5.50999 9.30892 5.77339 9.77776 6.24223C10.2466 6.71107 10.51 7.34695 10.51 8.00999C10.51 8.67304 10.2466 9.30892 9.77776 9.77776C9.30892 10.2466 8.67304 10.51 8.00999 10.51C7.34695 10.51 6.71107 10.2466 6.24223 9.77776C5.77339 9.30892 5.50999 8.67304 5.50999 8.00999C5.50999 7.34695 5.77339 6.71107 6.24223 6.24223ZM8.00999 6.50999C7.61217 6.50999 7.23064 6.66803 6.94933 6.94933C6.66803 7.23064 6.50999 7.61217 6.50999 8.00999C6.50999 8.40782 6.66803 8.78935 6.94933 9.07065C7.23064 9.35196 7.61217 9.50999 8.00999 9.50999C8.40782 9.50999 8.78935 9.35196 9.07065 9.07065C9.35196 8.78935 9.50999 8.40782 9.50999 8.00999C9.50999 7.61217 9.35196 7.23064 9.07065 6.94933C8.78935 6.66803 8.40782 6.50999 8.00999 6.50999Z" fill="currentColor"/>
<path d="M13.51 6.48L12.68 6.19C12.5909 5.95227 12.4839 5.72161 12.36 5.5C12.2293 5.28243 12.0823 5.07516 11.92 4.88L12.08 4.02C12.1364 3.72781 12.1002 3.42529 11.9766 3.15462C11.8529 2.88395 11.6478 2.65861 11.39 2.51L11.08 2.33C10.8234 2.18063 10.5267 2.11482 10.2311 2.1417C9.9354 2.16858 9.65543 2.28681 9.43 2.48L8.77 3.05C8.26626 2.97301 7.75374 2.97301 7.25 3.05L6.59 2.48C6.36457 2.28681 6.0846 2.16858 5.78894 2.1417C5.49327 2.11482 5.19657 2.18063 4.94 2.33L4.63 2.51C4.37033 2.65716 4.16322 2.88189 4.03769 3.15267C3.91216 3.42346 3.8745 3.72674 3.93 4.02L4.09 4.87C3.77 5.27 3.52 5.71 3.34 6.19L2.51 6.48C2.23153 6.57923 1.99066 6.76232 1.82053 7.00408C1.65041 7.24584 1.55939 7.53438 1.56 7.83V8.19C1.55939 8.48562 1.65041 8.77416 1.82053 9.01592C1.99066 9.25768 2.23153 9.44077 2.51 9.54L3.34 9.83C3.43 10.06 3.53 10.29 3.66 10.52C3.79 10.75 3.94 10.95 4.1 11.14L3.93 12C3.8745 12.2933 3.91216 12.5965 4.03769 12.8673C4.16322 13.1381 4.37033 13.3628 4.63 13.51L4.94 13.69C5.19758 13.838 5.49486 13.9022 5.79055 13.8735C6.08624 13.8448 6.36567 13.7248 6.59 13.53L7.25 12.97C7.75373 13.0472 8.26627 13.0472 8.77 12.97L9.43 13.54C9.65543 13.7332 9.9354 13.8514 10.2311 13.8783C10.5267 13.9052 10.8234 13.8394 11.08 13.69L11.39 13.51C11.6478 13.3614 11.8529 13.1361 11.9766 12.8654C12.1002 12.5947 12.1364 12.2922 12.08 12L11.92 11.14C12.24 10.74 12.49 10.3 12.68 9.83L13.5 9.54C13.7803 9.44244 14.0234 9.26007 14.1954 9.01817C14.3674 8.77627 14.4599 8.48683 14.46 8.19V7.83C14.4599 7.53318 14.3674 7.24374 14.1954 7.00184C14.0234 6.75994 13.7803 6.57756 13.5 6.48H13.51Z" stroke="currentColor" stroke-linecap="round" stroke-linejoin="round"/>
</svg>

<svg xmlns="http://www.w3.org/2000/svg" fill="none" viewBox="0 0 16 16">
  <path fill="currentColor" fill-rule="evenodd" d="M6.242 6.242a2.5 2.5 0 1 1 3.536 3.536 2.5 2.5 0 0 1-3.536-3.536Zm1.768.268a1.5 1.5 0 1 0 0 3 1.5 1.5 0 0 0 0-3Z" clip-rule="evenodd"/>
  <path stroke="currentColor" stroke-linecap="round" stroke-linejoin="round" d="m13.51 6.48-.83-.29a5.035 5.035 0 0 0-.32-.69 4.98 4.98 0 0 0-.44-.62l.16-.86a1.43 1.43 0 0 0-.69-1.51l-.31-.18a1.43 1.43 0 0 0-1.65.15l-.66.57a5.03 5.03 0 0 0-1.52 0l-.66-.57a1.43 1.43 0 0 0-1.65-.15l-.31.18a1.43 1.43 0 0 0-.7 1.51l.16.85c-.32.4-.57.84-.75 1.32l-.83.29a1.43 1.43 0 0 0-.95 1.35v.36a1.43 1.43 0 0 0 .95 1.35l.83.29c.09.23.19.46.32.69.13.23.28.43.44.62l-.17.86a1.43 1.43 0 0 0 .7 1.51l.31.18a1.43 1.43 0 0 0 1.65-.16l.66-.56a5.017 5.017 0 0 0 1.52 0l.66.57a1.43 1.43 0 0 0 1.65.15l.31-.18a1.43 1.43 0 0 0 .69-1.51l-.16-.86c.32-.4.57-.84.76-1.31l.82-.29a1.43 1.43 0 0 0 .96-1.35v-.36a1.43 1.43 0 0 0-.96-1.35h.01Z"/>
</svg>
